X:757
T:Brenda MacMahan's
O:England
M:C
L:1/8
S:Martin Hayes
K:D
DFEF D3d|=cABG EFGE| DFEF D3d|=cAGc ADD2|
DFEF D3d|=cABG EFGB|Addc dfed|cAGE FDD2||
f3 f2 age|f2df afde|f3 f2 age|fdec Adde|
f3 f2 age|f2df afde|fage d3e|d=cAG EFGE||


